X: 83
T:Greenholm
M:6/8
L:1/8
S:AABB
R:Jig
K:G
g||:dBG GBd|efg g2e|dBG GAB|A3-A2 d|dBG GBd|!
efg g2 e|dBG ABA|G3-G2:|:B/c/|d2 g gfg|e2 g gfg|!
dBG GAB|A3-A2 d|dBG GBd|efg g2 e|dBG ABA|G3-G2:||
% <A name="D1X084">
